svgs/light/house-laptop.svg

<svg xmlns="http://www.w3.org/2000/svg" viewBox="0 0 640 512"><!--! Font Awesome Pro 6.6.0 by @fontawesome - https://fontawesome.com License - https://fontawesome.com/license (Commercial License) Copyright 2024 Fonticons, Inc. --><path d="M229.6 3.9c6-5.1 14.8-5.1 20.8 0l224 192c6.7 5.8 7.5 15.9 1.7 22.6c-3.1 3.7-7.6 5.6-12.1 5.6l-.2 0c-3.7 0-7.3-1.3-10.3-3.9L416 187.9l0 36.1-32 0 0-63.5L240 37.1 96 160.5 96 352c0 17.7 14.3 32 32 32l144 0 0 32-144 0c-35.3 0-64-28.7-64-64l0-164.1L26.4 220.1c-6.7 5.8-16.8 5-22.6-1.7s-5-16.8 1.7-22.6l224-192zM352 256l192 0c26.5 0 48 21.5 48 48l0 128c0 8.8-7.2 16-16 16s-16-7.2-16-16l0-128c0-8.8-7.2-16-16-16l-192 0c-8.8 0-16 7.2-16 16l0 128c0 8.8-7.2 16-16 16s-16-7.2-16-16l0-128c0-26.5 21.5-48 48-48zM272 480l352 0c8.8 0 16 7.2 16 16s-7.2 16-16 16l-352 0c-8.8 0-16-7.2-16-16s7.2-16 16-16zM208 176l64 0c17.7 0 32 14.3 32 32l0 16c0 8.8-7.2 16-16 16s-16-7.2-16-16l0-16-64 0 0 64 48 0c8.8 0 16 7.2 16 16s-7.2 16-16 16l-48 0c-17.7 0-32-14.3-32-32l0-64c0-17.7 14.3-32 32-32z"/></svg>

<svg xmlns="http://www.w3.org/2000/svg" viewBox="0 0 640 512"><!--! Font Awesome Pro 6.4.0 by @fontawesome - https://fontawesome.com License - https://fontawesome.com/license (Commercial License) Copyright 2023 Fonticons, Inc. --><path d="M229.6 3.9c6-5.1 14.8-5.1 20.8 0l224 192c6.7 5.8 7.5 15.9 1.7 22.6c-3.1 3.7-7.6 5.6-12.1 5.6h-.2c-3.7 0-7.3-1.3-10.3-3.9L416 187.9V224H384V160.5L240 37.1 96 160.5V352c0 17.7 14.3 32 32 32H272v32H128c-35.3 0-64-28.7-64-64V187.9L26.4 220.1c-6.7 5.8-16.8 5-22.6-1.7s-5-16.8 1.7-22.6l224-192zM352 256H544c26.5 0 48 21.5 48 48V432c0 8.8-7.2 16-16 16s-16-7.2-16-16V304c0-8.8-7.2-16-16-16H352c-8.8 0-16 7.2-16 16V432c0 8.8-7.2 16-16 16s-16-7.2-16-16V304c0-26.5 21.5-48 48-48zM272 480H624c8.8 0 16 7.2 16 16s-7.2 16-16 16H272c-8.8 0-16-7.2-16-16s7.2-16 16-16zM208 176h64c17.7 0 32 14.3 32 32v16c0 8.8-7.2 16-16 16s-16-7.2-16-16V208H208v64h48c8.8 0 16 7.2 16 16s-7.2 16-16 16H208c-17.7 0-32-14.3-32-32V208c0-17.7 14.3-32 32-32z"/></svg>
